X: 17
T:Corn Rigs - 2nd Part
M:C
L:1/8
C:Trish Barker
R:Reel
K:D
A2||:F2 FG A2 AF|E2 EF G2 E2|F2 A2 dedc|A2 c2 c2 A2|!
F2 FG BAGF|E2 A2 C2 E2|G3 G cBAG|E2 F2 F2:||:A2|!
d4 A4|e4 A4|d4 decd|A2 d2 e4|!
d2 f2 gfed|edcB A2 E2|G3 G cBAG|E2 F2 F2:||

